img/svg/quote.svg

<?xml version="1.0" encoding="iso-8859-1"?>
<!-- Generator: Adobe Illustrator 16.0.0, SVG Export Plug-In . SVG Version: 6.00 Build 0)  -->
<!DOCTYPE svg PUBLIC "-//W3C//DTD SVG 1.1//EN" "http://www.w3.org/Graphics/SVG/1.1/DTD/svg11.dtd">
<svg version="1.1" id="Capa_1" xmlns="http://www.w3.org/2000/svg" xmlns:xlink="http://www.w3.org/1999/xlink" x="0px" y="0px"
	 width="349.078px" height="349.078px" viewBox="0 0 349.078 349.078" style="enable-background:new 0 0 349.078 349.078;"
	 xml:space="preserve">
<g>
	<path d="M150.299,26.634v58.25c0,7.9-6.404,14.301-14.304,14.301c-28.186,0-43.518,28.909-45.643,85.966h45.643
		c7.9,0,14.304,6.407,14.304,14.304v122.992c0,7.896-6.404,14.298-14.304,14.298H14.301C6.398,336.745,0,330.338,0,322.447V199.455
		c0-27.352,2.754-52.452,8.183-74.611c5.568-22.721,14.115-42.587,25.396-59.048c11.608-16.917,26.128-30.192,43.16-39.44
		C93.886,17.052,113.826,12.333,136,12.333C143.895,12.333,150.299,18.734,150.299,26.634z M334.773,99.186
		c7.896,0,14.305-6.407,14.305-14.301v-58.25c0-7.9-6.408-14.301-14.305-14.301c-22.165,0-42.108,4.72-59.249,14.023
		c-17.035,9.248-31.563,22.523-43.173,39.44c-11.277,16.461-19.824,36.328-25.393,59.054c-5.426,22.166-8.18,47.266-8.18,74.605
		v122.992c0,7.896,6.406,14.298,14.304,14.298h121.69c7.896,0,14.299-6.407,14.299-14.298V199.455
		c0-7.896-6.402-14.304-14.299-14.304h-44.992C291.873,128.095,306.981,99.186,334.773,99.186z"/>
</g>
<g>
</g>
<g>
</g>
<g>
</g>
<g>
</g>
<g>
</g>
<g>
</g>
<g>
</g>
<g>
</g>
<g>
</g>
<g>
</g>
<g>
</g>
<g>
</g>
<g>
</g>
<g>
</g>
<g>
</g>
</svg>

<svg width="350" height="350" viewBox="0 0 350 350" fill="none" xmlns="http://www.w3.org/2000/svg">
<path d="M150.299 26.634V84.884C150.299 92.784 143.895 99.185 135.995 99.185C107.809 99.185 92.477 128.094 90.352 185.151H135.995C143.895 185.151 150.299 191.558 150.299 199.455V322.447C150.299 330.343 143.895 336.745 135.995 336.745H14.301C6.398 336.745 0 330.338 0 322.447V199.455C0 172.103 2.754 147.003 8.183 124.844C13.751 102.123 22.298 82.257 33.579 65.796C45.187 48.879 59.707 35.604 76.739 26.356C93.886 17.052 113.826 12.333 136 12.333C143.895 12.333 150.299 18.734 150.299 26.634ZM334.773 99.186C342.669 99.186 349.078 92.779 349.078 84.885V26.635C349.078 18.735 342.67 12.334 334.773 12.334C312.608 12.334 292.665 17.054 275.524 26.357C258.489 35.605 243.961 48.88 232.351 65.797C221.074 82.258 212.527 102.125 206.958 124.851C201.532 147.017 198.778 172.117 198.778 199.456V322.448C198.778 330.344 205.184 336.746 213.082 336.746H334.772C342.668 336.746 349.071 330.339 349.071 322.448V199.455C349.071 191.559 342.669 185.151 334.772 185.151H289.78C291.873 128.095 306.981 99.186 334.773 99.186Z" fill="black"/>
</svg>
